X:1
T:Title
%%score 1 { 2 | 3 }
L:1/8
Q:1/4=110
M:4/4
K:A
V:1 treble nm="Grand Piano, Soprano"
V:2 treble nm="Choir Pad, Transporting Vision"
V:3 bass 
V:1
 A3 A A2 A2 | [GB]3 [GB] [GB]4 | [Ac]>[Bd] [ce]2 [ce]2 [Ac]2 | [Ac]4 [GB]4 | A3 A A2 A2 | %5
w: By~Possibly~by~Joseph~Funk,~1832 * * *|||||
 [GB]3 [GB] [GB]4 | [Ac]>[Bd] [ce]2 [ce]2 [Ac]2 | [GB]4 A4 | [Ee]2 [Ac]>[Gd] [Ae]2 [Ec]>d | %9
w: ||||
 [Ee]2 [Ac]2 [GB]4 | [Ec]>d [Ae]2 [Bf]2 [Ae]2 | [Bd]2 [Ac]2 [GB]4 | A3 A A2 A2 | [GB]3 [GB] [GB]4 | %14
w: |||||
 [Ac]>[Bd] [ce]2 [Be]2 [Ac]2 | [GB]3 A A4- | A4 z4 |] %17
w: |||
V:2
 C3 C C2 C2 | E3 E E4 | E>D C2 C2 E2 | E4 E4 | C3 C C2 C2 | E3 E E4 | E>D C2 C2 E2 | E4 C4 | %8
 C2[K:bass] A,>B, C2 A,>B, | C2 E2 C4 | C>D C2 D2 C2 | F2 C>D E4 | C3 C C2 C2 | C3 C E4 | %14
 E>D C2 B,2 A,2 | E3 E C4- | C4 z4 |] %17
V:3
 A,3 E, C,2 A,,2 | E,3 E, E,4 | A,2 A,2 G,2 A,2 | E,4 E,4 | A,3 E, C,2 A,,2 | E,3 E, E,4 | %6
 A,2 A,2 G,2 A,2 | E,4 A,,4 | A,2 F,2 E,2 z2 | A,2 A,,2 E,4 | A,>B, z2 B,2 z2 | B,2 A,2 E,4 | %12
 A,,3 A,, A,,2 C,2 | E,3 E, E,4 | A,2 A,2 G,2 z2 | E,3 E, A,,4- | A,,4 z4 |] %17

